X:1
T:Come Again
T:4 voci miste
T:John Dowland
%%score [ 1 2 3 4 ]
L:1/8
Q:1/4=90
M:2/4
K:G
V:1 treble nm="Sopran"
V:2 treble nm="Alt"
V:3 treble-8 nm="Tenor"
V:4 bass nm="Bass"
V:1
|: z2 B>c | d4 | z2 d2 | e2 d2 | c3 c | B4 | z2 d2 | d2 c2 | B2 B2 | A4 | z2 A2 | B2 G2 | A3 A | %13
w: Come a-|gain,|sweet|love doth|now in-|vite|thy|gra- ces|that re-|frain|to|do me|due de-|
w: Come a-|gain,|that|I may|cease to|mourn|through|thy un-|kind dis-|dain.|For|now, left|and for-|
 A4 | z D G2 | z E A2 | z F B2 | z G c2 | z A (d2 | d4-) | d4 | z d cB | A2 z B | AG G2- | %24
w: light,|to see,|to hear,|to touch,|to kiss,|to die|||with thee a-|gain in|swee- test sym-|
w: lorn,|I sit,|I sigh,|I weep,|I faint,|I die|||in dead- ly|pain and|end- less mi-|
 GF/E/ F2 | G4 | z D G2 | z E A2 | z F B2 | z G c2 | z A (d2 | d4-) | d4 | z d cB | A2 z B | %35
w: sym- pa- * *|thy.|To see,|to hear,|to touch,|to kiss,|to die,|||with thee a-|gain in|
w: mi- se- * *|ry.|I sit,|I sigh,|I weep,|I faint,|I die,|||in dead- ly|pain and|
 AG G2- | GF/E/ F2 | G4 :| %38
w: swee- test sym-|sym- pa- * *|thy.|
w: end- less mi-|mi- se- * *|ry.|
V:2
|: G3 G | G4 | z2 B2 | AG G2- | G2 F2 | G4 | z2 G2 | G2 E>F | G3 G | F4 | z2 F2 | G3 D | E3 E | %13
w: Come a-|gain,|sweet|love doth now|now in-|vite|thy|gra- * ces|that re-|frain|to|do me|due de-|
w: Come a-|gain,|that|I may cease|cease to|mourn|through|thy * un-|kind dis-|dain.|For|now, left|and for-|
 F4 | D4 | E2 z E | F2 z F | G2 z G | A2 z A | B4 | z2 A2 | G>F EG | F3 G | E2 B,C | D3 C | B,4 | %26
w: light,|to|see, to|hear, to|touch, to|kiss, to|die,|to|die with thee a-|gain, in|swee- test *|sym- pa-|thy.|
w: lorn,|I|sit, I|sigh, I|weep, I|faint, I|die,|I|die in dead- ly|pain, and|end- less *|mi- se-|ry.|
 D4 | E2 z E | F2 z F | G2 z G | A2 z A | B4 | z2 A2 | G>F EG | F3 G | E2 B,C | D3 C | B,4 :| %38
w: To|see, to|hear, to|touch, to|kiss, to|die,|to|die, with thee a-|gain in|swee- test *|sym- pa-|thy.|
w: I|sit, I|sigh, I|weep, I|faint, I|die,|I|die, in dead- ly|pain and|end- less *|mi- se-|ry.|
V:3
|: d3 d | B4 | z2 B2 | c2 d2 | e3 d/c/ | d4 | z2 B2 | B2 A2 | G2 d2 | d4 | z2 d2 | d3 d | d2 ^c2 | %13
w: Come a-|gain,|sweet|love doth|now in- *|vite|thy|gra- ces|that re-|frain|to|do me|due de-|
w: Come a-|gain,|that|I may|cease to *|mourn|through|thy un-|kind dis-|dain.|For|now, left|and for-|
 d4 | G4 | G2 z c | A2 z d | B2 z e | d3 c | BG GA | B2 c2 | d2 z G | d3 d | cB BA/G/ | A3 A | G4 | %26
w: light,|to|see, to|hear, to|touch, to|kiss, to|die, to die with|the a|gain, with|thee a-|gain, in swee- test *|sym- pa-|thy.|
w: lorn,|I|sit, I|sigh, I|weep, I|faint, I|die, I die in|dead- ly|pain, in|dead- ly|pain, and end- less *|mi- se-|ry.|
 G4 | G2 z c | A2 z d | B2 z e | d3 c | BG GA | B2 c2 | d2 z G | d3 d | cB BA/G/ | A3 A | G4 :| %38
w: To|see, to|hear, to|touch, to|kiss, to|die, to die with|thee a|gain with|thee a-|gain in swee- test *|sym- pa-|thy.|
w: I|sit, I|sigh, I|weep, I|faint, I|die, I die in|dead- ly|pain in|dead- ly|pain and end- less *|mi- se-|ry.|
V:4
|: G,2 G,2 | G,4 | z2 G,,2 | C,2 B,,2 | A,,3 A,, | G,,4 | z2 G,,2 | G,,2 A,,2 | B,,2 G,,2 | D,4 | %10
w: Come a-|gain,|sweet|love doth|now in-|vite|thy|gra- ces|that re-|frain|
w: Come a-|gain,|that|I may|cease to|mourn|through|thy un-|kind dis-|dain.|
 z2 D,2 | G,,2 B,,2 | A,,3 A,, | D,4 | B,,4 | C,3 C, | D,3 D, | E,3 E, | F,3 F, | G,2 G,,2 | %20
w: to|do me|due de-|light,|to|see, to|hear, to|touch, to|kiss, to|die, to|
w: For|now, left|and for-|lorn,|I|sit, I|sigh, I|weep, I|faint, I|die, I|
 G,,2 A,,2 | B,,2 C,2 | D,2 B,,2 | C,D, E,2 | D,3 D, | G,,4 | B,,4 | C,3 C, | D,3 D, | E,3 E, | %30
w: die with|thee a-|gain, in|swee- * test|sym- pa-|thy.|To|see, to|hear, to|touch, to|
w: die in|dead- ly|pain, and|end- * less|mi- se-|ry.|I|sit, I|sigh, I|weep, I|
 F,3 F, | G,2 G,,2 | G,,2 A,,2 | B,,2 C,2 | D,2 B,,2 | C,D, E,2 | D,3 D, | G,,4 :| %38
w: kiss, to|die, to|die with|thee a-|gain in|swee- * test|sym- pa-|thy.|
w: faint, I|die, I|die in|dead- ly|pain and|end- * less|mi- se-|ry.|

